Newaita-dark/apps/48/com.github.mdh34.quickdocs.svg

<svg height="48pt" viewBox="0 0 48 48" width="48pt" xmlns="http://www.w3.org/2000/svg" xmlns:xlink="http://www.w3.org/1999/xlink"><linearGradient id="a" gradientUnits="userSpaceOnUse" x1="23.81478" x2="23.81478" y1="42.0509045" y2="44.03547050005"><stop offset="0" stop-opacity=".27451"/><stop offset="1" stop-opacity="0"/></linearGradient><linearGradient id="b"><stop offset="0" stop-opacity=".313726"/><stop offset=".222222" stop-opacity=".27451"/><stop offset="1" stop-opacity="0"/></linearGradient><radialGradient id="c" cx="450.908936" cy="189.579361" gradientTransform="matrix(.00000026 -.117199 -.210958 -.00000015 73.234568 95.392999)" gradientUnits="userSpaceOnUse" r="21.166656" xlink:href="#b"/><radialGradient id="d" cx="450.908936" cy="189.579361" gradientTransform="matrix(-.00000026 .117199 .210958 .00000015 -26.597299 -11.291218)" gradientUnits="userSpaceOnUse" r="21.166656" xlink:href="#b"/><radialGradient id="e" cx="450.908936" cy="189.579361" gradientTransform="matrix(-.00000026 -.117199 .210958 -.00000015 -26.597299 95.392999)" gradientUnits="userSpaceOnUse" r="21.166656" xlink:href="#b"/><radialGradient id="f" cx="450.908936" cy="189.579361" gradientTransform="matrix(.00000026 .117199 -.210958 .00000015 73.234565 -11.291219)" gradientUnits="userSpaceOnUse" r="21.166656" xlink:href="#b"/><linearGradient id="g" gradientUnits="userSpaceOnUse" x1="23.318674" x2="23.318674" y1="42.05096580616" y2="4.34417266504"><stop offset="0" stop-color="#78909c"/><stop offset="1" stop-color="#90a4ae"/></linearGradient><linearGradient id="h" gradientUnits="userSpaceOnUse" x1="22.822531" x2="23.318673" y1="29.64741580616" y2="16.25158029293"><stop offset="0" stop-color="#e0e0e0"/><stop offset="1" stop-color="#eee"/></linearGradient><path d="m12.898438 42.050781h20.839843v1.984375h-20.839843zm0 0" fill="url(#a)"/><path d="m33.738281 42.050781h3.96875v-1.984375h-3.96875zm0 0" fill="url(#c)"/><path d="m12.898438 42.050781h-3.96875v1.984375h3.96875zm0 0" fill="url(#d)"/><path d="m12.898438 42.050781h-3.96875v-1.984375h3.96875zm0 0" fill="url(#e)"/><path d="m33.738281 42.050781h3.96875v1.984375h-3.96875zm0 0" fill="url(#f)"/><path d="m10.914062 4.34375c-1.097656 0-1.984374.886719-1.984374 1.984375v33.738281c0 1.097656.886718 1.984375 1.984374 1.984375h24.808594c1.097656 0 1.984375-.886719 1.984375-1.984375v-26.792968l-8.929687-8.929688zm19.847657 0 6.945312 6.945312v-4.960937c0-1.097656-.886719-1.984375-1.984375-1.984375zm0 0" fill="url(#g)"/><path d="m30.761719 4.34375 6.945312 6.945312v-4.960937c0-1.097656-.886719-1.984375-1.984375-1.984375zm0 0" fill="url(#g)"/><path d="m10.914062 4.34375c-1.097656 0-1.984374.886719-1.984374 1.984375v.496094c0-1.097657.886718-1.984375 1.984374-1.984375h17.863282l8.929687 8.929687v-.496093l-8.929687-8.929688zm19.847657 0 .496093.496094h4.464844c1.097656 0 1.984375.886718 1.984375 1.984375v-.496094c0-1.097656-.886719-1.984375-1.984375-1.984375zm0 0" fill="#fff" fill-opacity=".392157"/><path d="m30.761719 4.34375 6.945312 6.945312v-.734374l-6.210937-6.210938zm-21.832031 34.984375v.738281c0 1.097656.886718 1.984375 1.984374 1.984375h24.808594c1.097656 0 1.984375-.886719 1.984375-1.984375v-.738281c0 1.101563-.886719 1.988281-1.984375 1.988281h-24.808594c-1.097656 0-1.984374-.886718-1.984374-1.988281zm0 0" fill-opacity=".235294"/><path d="m10.914062 4.203125c-1.175781 0-2.125.949219-2.125 2.125v33.738281c0 1.175782.949219 2.125 2.125 2.125h24.808594c1.175782 0 2.125-.949218 2.125-2.125v-26.792968c0-.035157-.015625-.070313-.042968-.097657l-8.929688-8.929687c-.027344-.027344-.0625-.042969-.097656-.042969zm19.847657 0c-.058594 0-.109375.035156-.132813.085937-.019531.054688-.007812.113282.03125.15625l6.945313 6.945313c.042969.039063.101562.050781.15625.03125.050781-.023437.085937-.074219.085937-.132813v-4.960937c0-1.175781-.949218-2.125-2.125-2.125zm-19.847657.28125h17.804688l8.847656 8.847656v26.734375c0 1.023438-.820312 1.84375-1.84375 1.84375h-24.808594c-1.023437 0-1.84375-.820312-1.84375-1.84375v-33.738281c0-1.023437.820313-1.84375 1.84375-1.84375zm20.1875 0h4.621094c1.023438 0 1.84375.820313 1.84375 1.84375v4.621094zm0 0" fill="#212121"/><path d="m14.882812 14.265625c-.546874 0-.992187.445313-.992187.992187 0 .550782.445313.992188.992187.992188h3.96875v-1.984375zm5.957032 0v1.984375h10.914062c.550782 0 .992188-.441406.992188-.992188 0-.546874-.441406-.992187-.992188-.992187zm-5.957032 3.96875c-.546874 0-.992187.445313-.992187.992187 0 .550782.445313.992188.992187.992188h6.949219v-1.984375zm9.925782 0v1.984375h6.945312c.550782 0 .992188-.441406.992188-.992188 0-.546874-.441406-.992187-.992188-.992187zm-9.925782 3.972656c-.546874 0-.992187.441407-.992187.992188 0 .546875.445313.992187.992187.992187h2.976563v-1.984375zm4.960938 0v1.984375h6.949219v-1.984375zm8.933594 0v1.984375h2.976562c.550782 0 .992188-.445312.992188-.992187 0-.550781-.441406-.992188-.992188-.992188zm-13.894532 3.96875c-.546874 0-.992187.441407-.992187.992188 0 .546875.445313.992187.992187.992187h5.957032v-1.984375zm8.933594 0v1.984375h4.464844v-1.984375zm6.449219 0v1.984375h1.488281c.550782 0 .992188-.445312.992188-.992187 0-.550781-.441406-.992188-.992188-.992188zm-15.382813 3.96875c-.546874 0-.992187.441407-.992187.992188 0 .546875.445313.992187.992187.992187h9.429688v-1.984375zm11.414063 0v1.984375h5.457031c.550782 0 .992188-.445312.992188-.992187 0-.550781-.441406-.992188-.992188-.992188zm0 0" fill="#fff" fill-opacity=".392157"/><path d="m18.851562 16.25c-.824218 0-1.488281.609375-1.488281 1.363281v10.050781c0 .746094.546875 1.359376 1.261719 1.46875.074219.011719.152344.019532.226562.019532h3.476563v-2.976563h-1.988281v-6.949219h1.988281v-2.976562zm4.46875 0v2.976562h.992188c1.921875 0 3.472656 1.550782 3.472656 3.476563 0 1.921875-1.550781 3.472656-3.472656 3.472656h-.992188v2.734375c0 .078125-.003906.160156-.007812.242188h1c3.570312 0 6.449219-2.878906 6.449219-6.449219 0-3.574219-2.878907-6.453125-6.449219-6.453125zm0 0" fill="url(#h)"/><path d="m18.851562 16.25c-.824218 0-1.488281.609375-1.488281 1.363281v.496094c0-.753906.664063-1.363281 1.488281-1.363281h3.476563v-.496094zm4.46875 0v.496094h.992188c3.488281 0 6.3125 2.746094 6.441406 6.203125.003906-.082031.007813-.164063.007813-.246094 0-3.574219-2.878907-6.453125-6.449219-6.453125zm4.453126 6.699219c-.125 1.808593-1.621094 3.226562-3.460938 3.226562h-.992188v.496094h.992188c1.921875 0 3.472656-1.550781 3.472656-3.472656 0-.085938-.003906-.167969-.011718-.25zm-7.433594 3.226562v.496094h1.988281v-.496094zm2.980468 2.734375c0 .078125-.003906.160156-.007812.242188h.007812zm0 0" fill="#fff" fill-opacity=".812903"/><path d="m20.339844 19.226562v.621094h1.988281v-.621094zm2.980468 0v.621094h.992188c1.816406 0 3.300781 1.386719 3.457031 3.164063.007813-.101563.015625-.207031.015625-.308594 0-1.925781-1.550781-3.476563-3.472656-3.476563zm7.433594 3.785157c-.160156 3.429687-2.972656 6.140625-6.441406 6.140625h-.992188v.375c0 .082031-.003906.164062-.007812.242187h1c3.570312 0 6.449219-2.875 6.449219-6.449219 0-.101562-.003907-.207031-.007813-.308593zm-13.390625 4.652343v.617188c0 .75.546875 1.363281 1.261719 1.472656.074219.011719.152344.015625.226562.015625h3.476563v-.617187h-3.476563c-.074218 0-.152343-.007813-.226562-.019532-.714844-.109374-1.261719-.722656-1.261719-1.46875zm0 0" fill-opacity=".235294"/><path d="m201.064133-41.683218c-8.790828 0-15.873484 6.49938-15.873484 14.540279v107.198096c0 7.957573 5.832776 14.498615 13.457048 15.665171.791591.124988 1.624845.208313 2.416436.208313h37.079792v-31.746968h-21.206308v-74.117922h21.206308v-31.746969zm47.662115 0v31.746969h10.582323c20.498042 0 37.038129 16.540087 37.038129 37.079792 0 20.498043-16.540087 37.03813-37.038129 37.03813h-10.582323v29.163881c0 .833254-.041663 1.708171-.083326 2.583087h10.665649c38.079697 0 68.785098-30.705401 68.785098-68.785098 0-38.121359-30.705401-68.826761-68.785098-68.826761zm0 0" fill="none" stroke="#212121" stroke-linecap="round" stroke-linejoin="round" stroke-width="3" transform="matrix(.093759 0 0 .093759 0 20.158175)"/></svg>

<?xml version="1.0" encoding="UTF-8"?>
<svg xmlns="http://www.w3.org/2000/svg" xmlns:xlink="http://www.w3.org/1999/xlink" width="48pt" height="48pt" viewBox="0 0 48 48" version="1.1">
<defs>
<linearGradient id="linear0" gradientUnits="userSpaceOnUse" x1="254" y1="233.5" x2="254" y2="254.666672" gradientTransform="matrix(0.093759,0,0,0.093759,-0.00000572259,20.158178)">
<stop offset="0" style="stop-color:rgb(0%,0%,0%);stop-opacity:0.27451;"/>
<stop offset="1" style="stop-color:rgb(0%,0%,0%);stop-opacity:0;"/>
</linearGradient>
<radialGradient id="radial0" gradientUnits="userSpaceOnUse" cx="450.908936" cy="189.579361" fx="450.908936" fy="189.579361" r="21.166656" gradientTransform="matrix(0.000000261256,-0.117199,-0.210958,-0.000000152308,73.234568,95.392999)">
<stop offset="0" style="stop-color:rgb(0%,0%,0%);stop-opacity:0.313726;"/>
<stop offset="0.222222" style="stop-color:rgb(0%,0%,0%);stop-opacity:0.27451;"/>
<stop offset="1" style="stop-color:rgb(0%,0%,0%);stop-opacity:0;"/>
</radialGradient>
<radialGradient id="radial1" gradientUnits="userSpaceOnUse" cx="450.908936" cy="189.579361" fx="450.908936" fy="189.579361" r="21.166656" gradientTransform="matrix(-0.000000261256,0.117199,0.210958,0.000000152308,-26.597299,-11.291218)">
<stop offset="0" style="stop-color:rgb(0%,0%,0%);stop-opacity:0.313726;"/>
<stop offset="0.222222" style="stop-color:rgb(0%,0%,0%);stop-opacity:0.27451;"/>
<stop offset="1" style="stop-color:rgb(0%,0%,0%);stop-opacity:0;"/>
</radialGradient>
<radialGradient id="radial2" gradientUnits="userSpaceOnUse" cx="450.908936" cy="189.579361" fx="450.908936" fy="189.579361" r="21.166656" gradientTransform="matrix(-0.000000261256,-0.117199,0.210958,-0.000000152308,-26.597299,95.392999)">
<stop offset="0" style="stop-color:rgb(0%,0%,0%);stop-opacity:0.313726;"/>
<stop offset="0.222222" style="stop-color:rgb(0%,0%,0%);stop-opacity:0.27451;"/>
<stop offset="1" style="stop-color:rgb(0%,0%,0%);stop-opacity:0;"/>
</radialGradient>
<radialGradient id="radial3" gradientUnits="userSpaceOnUse" cx="450.908936" cy="189.579361" fx="450.908936" fy="189.579361" r="21.166656" gradientTransform="matrix(0.000000261256,0.117199,-0.210958,0.000000152308,73.234565,-11.291219)">
<stop offset="0" style="stop-color:rgb(0%,0%,0%);stop-opacity:0.313726;"/>
<stop offset="0.222222" style="stop-color:rgb(0%,0%,0%);stop-opacity:0.27451;"/>
<stop offset="1" style="stop-color:rgb(0%,0%,0%);stop-opacity:0;"/>
</radialGradient>
<linearGradient id="linear1" gradientUnits="userSpaceOnUse" x1="940" y1="1695.118164" x2="940" y2="175.118118" gradientTransform="matrix(0.0248071,0,0,0.0248071,0,0.00000000000000282)">
<stop offset="0" style="stop-color:rgb(47.058824%,56.470591%,61.176473%);stop-opacity:1;"/>
<stop offset="1" style="stop-color:rgb(56.470591%,64.313728%,68.235296%);stop-opacity:1;"/>
</linearGradient>
<linearGradient id="linear2" gradientUnits="userSpaceOnUse" x1="940" y1="1695.118164" x2="940" y2="175.118118" gradientTransform="matrix(0.0248071,0,0,0.0248071,0,0.00000000000000282)">
<stop offset="0" style="stop-color:rgb(47.058824%,56.470591%,61.176473%);stop-opacity:1;"/>
<stop offset="1" style="stop-color:rgb(56.470591%,64.313728%,68.235296%);stop-opacity:1;"/>
</linearGradient>
<linearGradient id="linear3" gradientUnits="userSpaceOnUse" x1="900" y1="1195.118164" x2="920" y2="655.118103" gradientTransform="matrix(0.0248071,0,0,0.0248071,0.496141,0.00000000000000282)">
<stop offset="0" style="stop-color:rgb(87.843138%,87.843138%,87.843138%);stop-opacity:1;"/>
<stop offset="1" style="stop-color:rgb(93.333334%,93.333334%,93.333334%);stop-opacity:1;"/>
</linearGradient>
</defs>
<g id="surface1">
<path style=" stroke:none;fill-rule:nonzero;fill:url(#linear0);" d="M 12.898438 42.050781 L 33.738281 42.050781 L 33.738281 44.035156 L 12.898438 44.035156 Z M 12.898438 42.050781 "/>
<path style=" stroke:none;fill-rule:nonzero;fill:url(#radial0);" d="M 33.738281 42.050781 L 37.707031 42.050781 L 37.707031 40.066406 L 33.738281 40.066406 Z M 33.738281 42.050781 "/>
<path style=" stroke:none;fill-rule:nonzero;fill:url(#radial1);" d="M 12.898438 42.050781 L 8.929688 42.050781 L 8.929688 44.035156 L 12.898438 44.035156 Z M 12.898438 42.050781 "/>
<path style=" stroke:none;fill-rule:nonzero;fill:url(#radial2);" d="M 12.898438 42.050781 L 8.929688 42.050781 L 8.929688 40.066406 L 12.898438 40.066406 Z M 12.898438 42.050781 "/>
<path style=" stroke:none;fill-rule:nonzero;fill:url(#radial3);" d="M 33.738281 42.050781 L 37.707031 42.050781 L 37.707031 44.035156 L 33.738281 44.035156 Z M 33.738281 42.050781 "/>
<path style=" stroke:none;fill-rule:nonzero;fill:url(#linear1);" d="M 10.914062 4.34375 C 9.816406 4.34375 8.929688 5.230469 8.929688 6.328125 L 8.929688 40.066406 C 8.929688 41.164062 9.816406 42.050781 10.914062 42.050781 L 35.722656 42.050781 C 36.820312 42.050781 37.707031 41.164062 37.707031 40.066406 L 37.707031 13.273438 L 28.777344 4.34375 Z M 30.761719 4.34375 L 37.707031 11.289062 L 37.707031 6.328125 C 37.707031 5.230469 36.820312 4.34375 35.722656 4.34375 Z M 30.761719 4.34375 "/>
<path style=" stroke:none;fill-rule:nonzero;fill:url(#linear2);" d="M 30.761719 4.34375 L 37.707031 11.289062 L 37.707031 6.328125 C 37.707031 5.230469 36.820312 4.34375 35.722656 4.34375 Z M 30.761719 4.34375 "/>
<path style=" stroke:none;fill-rule:nonzero;fill:rgb(100%,100%,100%);fill-opacity:0.392157;" d="M 10.914062 4.34375 C 9.816406 4.34375 8.929688 5.230469 8.929688 6.328125 L 8.929688 6.824219 C 8.929688 5.726562 9.816406 4.839844 10.914062 4.839844 L 28.777344 4.839844 L 37.707031 13.769531 L 37.707031 13.273438 L 28.777344 4.34375 Z M 30.761719 4.34375 L 31.257812 4.839844 L 35.722656 4.839844 C 36.820312 4.839844 37.707031 5.726562 37.707031 6.824219 L 37.707031 6.328125 C 37.707031 5.230469 36.820312 4.34375 35.722656 4.34375 Z M 30.761719 4.34375 "/>
<path style=" stroke:none;fill-rule:nonzero;fill:rgb(0%,0%,0%);fill-opacity:0.235294;" d="M 30.761719 4.34375 L 37.707031 11.289062 L 37.707031 10.554688 L 31.496094 4.34375 Z M 8.929688 39.328125 L 8.929688 40.066406 C 8.929688 41.164062 9.816406 42.050781 10.914062 42.050781 L 35.722656 42.050781 C 36.820312 42.050781 37.707031 41.164062 37.707031 40.066406 L 37.707031 39.328125 C 37.707031 40.429688 36.820312 41.316406 35.722656 41.316406 L 10.914062 41.316406 C 9.816406 41.316406 8.929688 40.429688 8.929688 39.328125 Z M 8.929688 39.328125 "/>
<path style=" stroke:none;fill-rule:nonzero;fill:rgb(12.941177%,12.941177%,12.941177%);fill-opacity:1;" d="M 10.914062 4.203125 C 9.738281 4.203125 8.789062 5.152344 8.789062 6.328125 L 8.789062 40.066406 C 8.789062 41.242188 9.738281 42.191406 10.914062 42.191406 L 35.722656 42.191406 C 36.898438 42.191406 37.847656 41.242188 37.847656 40.066406 L 37.847656 13.273438 C 37.847656 13.238281 37.832031 13.203125 37.804688 13.175781 L 28.875 4.246094 C 28.847656 4.21875 28.8125 4.203125 28.777344 4.203125 Z M 30.761719 4.203125 C 30.703125 4.203125 30.652344 4.238281 30.628906 4.289062 C 30.609375 4.34375 30.621094 4.402344 30.660156 4.445312 L 37.605469 11.390625 C 37.648438 11.429688 37.707031 11.441406 37.761719 11.421875 C 37.8125 11.398438 37.847656 11.347656 37.847656 11.289062 L 37.847656 6.328125 C 37.847656 5.152344 36.898438 4.203125 35.722656 4.203125 Z M 10.914062 4.484375 L 28.71875 4.484375 L 37.566406 13.332031 L 37.566406 40.066406 C 37.566406 41.089844 36.746094 41.910156 35.722656 41.910156 L 10.914062 41.910156 C 9.890625 41.910156 9.070312 41.089844 9.070312 40.066406 L 9.070312 6.328125 C 9.070312 5.304688 9.890625 4.484375 10.914062 4.484375 Z M 31.101562 4.484375 L 35.722656 4.484375 C 36.746094 4.484375 37.566406 5.304688 37.566406 6.328125 L 37.566406 10.949219 Z M 31.101562 4.484375 "/>
<path style=" stroke:none;fill-rule:nonzero;fill:rgb(100%,100%,100%);fill-opacity:0.392157;" d="M 14.882812 14.265625 C 14.335938 14.265625 13.890625 14.710938 13.890625 15.257812 C 13.890625 15.808594 14.335938 16.25 14.882812 16.25 L 18.851562 16.25 L 18.851562 14.265625 Z M 20.839844 14.265625 L 20.839844 16.25 L 31.753906 16.25 C 32.304688 16.25 32.746094 15.808594 32.746094 15.257812 C 32.746094 14.710938 32.304688 14.265625 31.753906 14.265625 Z M 14.882812 18.234375 C 14.335938 18.234375 13.890625 18.679688 13.890625 19.226562 C 13.890625 19.777344 14.335938 20.21875 14.882812 20.21875 L 21.832031 20.21875 L 21.832031 18.234375 Z M 24.808594 18.234375 L 24.808594 20.21875 L 31.753906 20.21875 C 32.304688 20.21875 32.746094 19.777344 32.746094 19.226562 C 32.746094 18.679688 32.304688 18.234375 31.753906 18.234375 Z M 14.882812 22.207031 C 14.335938 22.207031 13.890625 22.648438 13.890625 23.199219 C 13.890625 23.746094 14.335938 24.191406 14.882812 24.191406 L 17.859375 24.191406 L 17.859375 22.207031 Z M 19.84375 22.207031 L 19.84375 24.191406 L 26.792969 24.191406 L 26.792969 22.207031 Z M 28.777344 22.207031 L 28.777344 24.191406 L 31.753906 24.191406 C 32.304688 24.191406 32.746094 23.746094 32.746094 23.199219 C 32.746094 22.648438 32.304688 22.207031 31.753906 22.207031 Z M 14.882812 26.175781 C 14.335938 26.175781 13.890625 26.617188 13.890625 27.167969 C 13.890625 27.714844 14.335938 28.160156 14.882812 28.160156 L 20.839844 28.160156 L 20.839844 26.175781 Z M 23.816406 26.175781 L 23.816406 28.160156 L 28.28125 28.160156 L 28.28125 26.175781 Z M 30.265625 26.175781 L 30.265625 28.160156 L 31.753906 28.160156 C 32.304688 28.160156 32.746094 27.714844 32.746094 27.167969 C 32.746094 26.617188 32.304688 26.175781 31.753906 26.175781 Z M 14.882812 30.144531 C 14.335938 30.144531 13.890625 30.585938 13.890625 31.136719 C 13.890625 31.683594 14.335938 32.128906 14.882812 32.128906 L 24.3125 32.128906 L 24.3125 30.144531 Z M 26.296875 30.144531 L 26.296875 32.128906 L 31.753906 32.128906 C 32.304688 32.128906 32.746094 31.683594 32.746094 31.136719 C 32.746094 30.585938 32.304688 30.144531 31.753906 30.144531 Z M 26.296875 30.144531 "/>
<path style=" stroke:none;fill-rule:nonzero;fill:url(#linear3);" d="M 18.851562 16.25 C 18.027344 16.25 17.363281 16.859375 17.363281 17.613281 L 17.363281 27.664062 C 17.363281 28.410156 17.910156 29.023438 18.625 29.132812 C 18.699219 29.144531 18.777344 29.152344 18.851562 29.152344 L 22.328125 29.152344 L 22.328125 26.175781 L 20.339844 26.175781 L 20.339844 19.226562 L 22.328125 19.226562 L 22.328125 16.25 Z M 23.320312 16.25 L 23.320312 19.226562 L 24.3125 19.226562 C 26.234375 19.226562 27.785156 20.777344 27.785156 22.703125 C 27.785156 24.625 26.234375 26.175781 24.3125 26.175781 L 23.320312 26.175781 L 23.320312 28.910156 C 23.320312 28.988281 23.316406 29.070312 23.3125 29.152344 L 24.3125 29.152344 C 27.882812 29.152344 30.761719 26.273438 30.761719 22.703125 C 30.761719 19.128906 27.882812 16.25 24.3125 16.25 Z M 23.320312 16.25 "/>
<path style=" stroke:none;fill-rule:nonzero;fill:rgb(100%,100%,100%);fill-opacity:0.812903;" d="M 18.851562 16.25 C 18.027344 16.25 17.363281 16.859375 17.363281 17.613281 L 17.363281 18.109375 C 17.363281 17.355469 18.027344 16.746094 18.851562 16.746094 L 22.328125 16.746094 L 22.328125 16.25 Z M 23.320312 16.25 L 23.320312 16.746094 L 24.3125 16.746094 C 27.800781 16.746094 30.625 19.492188 30.753906 22.949219 C 30.757812 22.867188 30.761719 22.785156 30.761719 22.703125 C 30.761719 19.128906 27.882812 16.25 24.3125 16.25 Z M 27.773438 22.949219 C 27.648438 24.757812 26.152344 26.175781 24.3125 26.175781 L 23.320312 26.175781 L 23.320312 26.671875 L 24.3125 26.671875 C 26.234375 26.671875 27.785156 25.121094 27.785156 23.199219 C 27.785156 23.113281 27.78125 23.03125 27.773438 22.949219 Z M 20.339844 26.175781 L 20.339844 26.671875 L 22.328125 26.671875 L 22.328125 26.175781 Z M 23.320312 28.910156 C 23.320312 28.988281 23.316406 29.070312 23.3125 29.152344 L 23.320312 29.152344 Z M 23.320312 28.910156 "/>
<path style=" stroke:none;fill-rule:nonzero;fill:rgb(0%,0%,0%);fill-opacity:0.235294;" d="M 20.339844 19.226562 L 20.339844 19.847656 L 22.328125 19.847656 L 22.328125 19.226562 Z M 23.320312 19.226562 L 23.320312 19.847656 L 24.3125 19.847656 C 26.128906 19.847656 27.613281 21.234375 27.769531 23.011719 C 27.777344 22.910156 27.785156 22.804688 27.785156 22.703125 C 27.785156 20.777344 26.234375 19.226562 24.3125 19.226562 Z M 30.753906 23.011719 C 30.59375 26.441406 27.78125 29.152344 24.3125 29.152344 L 23.320312 29.152344 L 23.320312 29.527344 C 23.320312 29.609375 23.316406 29.691406 23.3125 29.769531 L 24.3125 29.769531 C 27.882812 29.769531 30.761719 26.894531 30.761719 23.320312 C 30.761719 23.21875 30.757812 23.113281 30.753906 23.011719 Z M 17.363281 27.664062 L 17.363281 28.28125 C 17.363281 29.03125 17.910156 29.644531 18.625 29.753906 C 18.699219 29.765625 18.777344 29.769531 18.851562 29.769531 L 22.328125 29.769531 L 22.328125 29.152344 L 18.851562 29.152344 C 18.777344 29.152344 18.699219 29.144531 18.625 29.132812 C 17.910156 29.023438 17.363281 28.410156 17.363281 27.664062 Z M 17.363281 27.664062 "/>
<path style="fill:none;stroke-width:3;stroke-linecap:round;stroke-linejoin:round;stroke:rgb(12.941177%,12.941177%,12.941177%);stroke-opacity:1;stroke-miterlimit:4;" d="M 201.064133 -41.683218 C 192.273305 -41.683218 185.190649 -35.183838 185.190649 -27.142939 L 185.190649 80.055157 C 185.190649 88.01273 191.023425 94.553772 198.647697 95.720328 C 199.439288 95.845316 200.272542 95.928641 201.064133 95.928641 L 238.143925 95.928641 L 238.143925 64.181673 L 216.937617 64.181673 L 216.937617 -9.936249 L 238.143925 -9.936249 L 238.143925 -41.683218 Z M 248.726248 -41.683218 L 248.726248 -9.936249 L 259.308571 -9.936249 C 279.806613 -9.936249 296.3467 6.603838 296.3467 27.143543 C 296.3467 47.641586 279.806613 64.181673 259.308571 64.181673 L 248.726248 64.181673 L 248.726248 93.345554 C 248.726248 94.178808 248.684585 95.053725 248.642922 95.928641 L 259.308571 95.928641 C 297.388268 95.928641 328.093669 65.22324 328.093669 27.143543 C 328.093669 -10.977816 297.388268 -41.683218 259.308571 -41.683218 Z M 248.726248 -41.683218 " transform="matrix(0.093759,0,0,0.093759,0,20.158175)"/>
</g>
</svg>
